X: 78
T: SLIDES: Hare in the Corn Set
T: Rathawaun / Rath Abhainn / Hare in the Corn No. 1
C: C: Trad.; S: Various
C: Set Leaders: Sophie, Anton
Z: Anton Zille ed., Oleg Naumov arr.; Thady Quill / RickR / ceolachan at The Session
N: https://thesession.org/members/26966/sets/99585
R: Slide
M: 12/8
L: 1/8
Q: 3/8=116
K: Dmaj
A2G|:"D"F2A AFA "G"BdB "A"AFE|"D (Bm)"F2E "A"EDE "D"F2D D2E|
"D"F2A "D/F#"AFA "G"BdB AFA|"(Em)"Bcd "A"efe|1 "D"d2 A "A"B2 A:|2 "D"d3 "A"d2 e||
|:"D"faf fed "G"g3 gfe|"D/F#"faf fed "A"f2 a b2 a|
"D (Bm)"faf fed "G"g2e edB|"Em"ABd "A"efe|1 "D"d3 "A"d2 e:|2 "D"d2 A "A"B2 A||
T: Hare in the Corn (Gmaj) / Cat in the Corner
K: Gmaj
|:"G"B2B "G/C"A2G BdB AG"G"A|B2e "G/C"d2B "D"A3 AGA|
"G"B3 "G/C"AGA Bd"G/C"B A"G"GA|"G/C"B2e "D"d2B "G"G3 G3:||
|:"C"e2e edB def g3|"Em"BAB "G"d2B "D"A3 ABd|
"C"e3 edB e2f g3|"D"BAB d2B "(G)"G3 G3:||
T: Brosna No. 3 / Cnoc na gClárac
K: Amix
|:"A5"e3 efe d2 f e2 d|c2 A ABA "G"a3 "D"a2 g|
"A5"e3 efe "D"d3 e2 d|"A"c2 A B2 "G"G A3 ABd:||
"A5"e2 a a2 g e2 "G"d Bcd|"A5"e2 a a2 "G"g e2 g "D"d2 g|
"A5"e2 a a2 g e2 e "A"efe|"D"d2 d def "G"g2 e f2 d|
"A5"e2 a a2 g e2 A "G"Bcd|"A5"e2 a a2 "G"g efe d3|
"A5"e2 a a2 g "A"e2 f "G"g2 e|"D"d2 d def "G"g2 e fed||

